!!! OTL: Literature12
!!! Chapter: 5
!!! Section: I
!!! Page: 347
!!! Mode: 
!!! Encoder: DJB
**kern
*staff1
*I"Piano
=1-
*clefG2
*k[]
*G:
*met(c|)
*M2/2
4r
4r
4r
4b\
=2
2dd\
4dd\
4b\
=3
2dd\
4dd\
4dd\
=4
4ee\
8dd\
8r
4dd\
8b\
8r
=5
2.dd\
4dd\
=6
4ee\
8dd\
8r
4dd\
8b\
8r
=7
4b\
4b\
4b\
4a/
=8
4g/
8a/
8r
4g/
8e/
8r
=9
!!linebreak:original
2g/
4g/
8e/
8r
=10
2d/
4d/
4e/
=11
2g/
4g/
4b\
=12
4a/
8g/
8r
4e/
8g/
8r
=13
2.g/
4r
==
*-
